X: 2334
T: Bag Of Spuds, The
R: reel
M: 4/4
K: Adorian
|:A2eA (3cBA eA|ABcd edcB|G2BG dGBG|GABc dcBG|
A2eA cAeA|ABcd edcB|ABce gfge|dBGA BAA2:|
|:a2ea ageg|agbg agef|gedB GABd|~g3a bgeg|
a2ea ageg|agbg ageg|d^cde gfge|dBGA BAA2:|

